src/assets/img/icons/Icon-Error-Red.svg

<svg width="27" height="27" viewBox="0 0 27 27" fill="none" xmlns="http://www.w3.org/2000/svg">
<path d="M19.2071 9.20711C19.5976 8.81658 19.5976 8.18342 19.2071 7.79289C18.8166 7.40237 18.1834 7.40237 17.7929 7.79289L19.2071 9.20711ZM7.79289 17.7929C7.40237 18.1834 7.40237 18.8166 7.79289 19.2071C8.18342 19.5976 8.81658 19.5976 9.20711 19.2071L7.79289 17.7929ZM9.20711 7.79289C8.81658 7.40237 8.18342 7.40237 7.79289 7.79289C7.40237 8.18342 7.40237 8.81658 7.79289 9.20711L9.20711 7.79289ZM17.7929 19.2071C18.1834 19.5976 18.8166 19.5976 19.2071 19.2071C19.5976 18.8166 19.5976 18.1834 19.2071 17.7929L17.7929 19.2071ZM17.7929 7.79289L12.7929 12.7929L14.2071 14.2071L19.2071 9.20711L17.7929 7.79289ZM12.7929 12.7929L7.79289 17.7929L9.20711 19.2071L14.2071 14.2071L12.7929 12.7929ZM7.79289 9.20711L12.7929 14.2071L14.2071 12.7929L9.20711 7.79289L7.79289 9.20711ZM12.7929 14.2071L17.7929 19.2071L19.2071 17.7929L14.2071 12.7929L12.7929 14.2071ZM25 13.5C25 19.8513 19.8513 25 13.5 25V27C20.9558 27 27 20.9558 27 13.5H25ZM13.5 25C7.14873 25 2 19.8513 2 13.5H0C0 20.9558 6.04416 27 13.5 27V25ZM2 13.5C2 7.14873 7.14873 2 13.5 2V0C6.04416 0 0 6.04416 0 13.5H2ZM13.5 2C19.8513 2 25 7.14873 25 13.5H27C27 6.04416 20.9558 0 13.5 0V2Z" fill="#B90000"/>
</svg>

<svg width="27" height="27" fill="none" xmlns="http://www.w3.org/2000/svg">
  <path d="M19.2071 9.2071c.3905-.3905.3905-1.0237 0-1.4142-.3905-.3905-1.0237-.3905-1.4142 0l1.4142 1.4142zM7.7929 17.793c-.3905.3905-.3905 1.0237 0 1.4142.3905.3905 1.0237.3905 1.4142 0L7.793 17.7929zm1.4142-10c-.3905-.3905-1.0237-.3905-1.4142 0-.3905.3905-.3905 1.0237 0 1.4142L9.207 7.793zM17.793 19.207c.3905.3905 1.0237.3905 1.4142 0 .3905-.3905.3905-1.0237 0-1.4142l-1.4142 1.4142zm0-11.4142l-5 5 1.4142 1.4142 5-5-1.4142-1.4142zm-5 5l-5 5 1.4142 1.4142 5-5-1.4142-1.4142zm-5-3.5858l5 5 1.4142-1.4142-5-5L7.793 9.207zm5 5l5 5 1.4142-1.4142-5-5-1.4142 1.4142zM25 13.5C25 19.8513 19.8513 25 13.5 25v2C20.9558 27 27 20.9558 27 13.5h-2zM13.5 25C7.1487 25 2 19.8513 2 13.5H0C0 20.9558 6.0442 27 13.5 27v-2zM2 13.5C2 7.1487 7.1487 2 13.5 2V0C6.0442 0 0 6.0442 0 13.5h2zM13.5 2C19.8513 2 25 7.1487 25 13.5h2C27 6.0442 20.9558 0 13.5 0v2z" fill="#B90000"/>
</svg>
